src/images/badges/most-viewed-month-zeta.svg

<svg width="40" height="60" viewBox="0 0 40 60" fill="none" xmlns="http://www.w3.org/2000/svg">
<path d="M30 1C34.9706 1 39 5.02944 39 10V30C39 34.9706 34.9706 39 30 39L19 39V50C19 54.9706 14.9706 59 10 59C5.02944 59 1 54.9706 1 50L1 30C1 25.0294 5.02944 21 10 21L21 21V10C21 5.02944 25.0294 1 30 1Z" fill="#2E9AFF"/>
<path d="M32.3891 7.99536C32.6197 7.99536 32.7734 8.1491 32.7734 8.35409C32.7734 8.45659 32.7478 8.53346 32.6966 8.58471L26.2906 19.3467C26.2138 19.4748 26.0856 19.5773 25.9319 19.5773C25.7013 19.5773 25.5475 19.4235 25.5475 19.2186C25.5475 19.1161 25.5732 19.0392 25.6244 18.9879L32.0304 8.22598C32.1072 8.09786 32.2353 7.99536 32.3891 7.99536Z" fill="black"/>
<path d="M30.7748 25.2145C30.7748 25.3682 30.8517 25.4963 31.0054 25.5732C32.3378 26.3163 33.6959 27.8025 33.6959 30.6467C33.6959 33.5422 32.3635 35.0283 31.0054 35.7714C30.8517 35.8739 30.7748 35.9764 30.7748 36.1302C30.7748 36.3352 30.9029 36.4633 31.1079 36.4633C31.1848 36.4633 31.2873 36.4633 31.4666 36.3608C32.9016 35.6433 34.5415 33.8497 34.5415 30.6723C34.5415 27.495 32.9016 25.7013 31.4666 24.9838C31.2873 24.907 31.1848 24.8813 31.1079 24.8813C30.9029 24.8813 30.7748 25.0095 30.7748 25.2145Z" fill="black"/>
<path d="M8.68714 35.7971C8.84088 35.8739 8.91775 36.0021 8.91775 36.1558C8.91775 36.3608 8.78963 36.4889 8.58464 36.4889C8.50777 36.4889 8.40528 36.4633 8.22591 36.3864C6.79098 35.669 5.15106 33.8753 5.15106 30.6979C5.15106 27.5206 6.79098 25.7526 8.22591 25.0095C8.40528 24.907 8.50777 24.907 8.58464 24.907C8.78963 24.907 8.91775 25.0351 8.91775 25.2401C8.91775 25.3938 8.84088 25.4963 8.68714 25.5988C7.32908 26.3419 5.99665 27.8025 5.99665 30.6979C5.99665 33.5934 7.3547 35.0796 8.68714 35.7971Z" fill="black"/>
<path d="M14.7344 30.083C14.7344 30.6724 14.2475 31.1592 13.6325 31.1592C13.0432 31.1592 12.5563 30.6724 12.5563 30.083C12.5563 29.4681 13.0432 28.9812 13.6325 28.9812C14.2475 28.9812 14.7344 29.4424 14.7344 30.083Z" fill="black"/>
<path d="M21.7296 32.9529C21.5759 32.9529 21.499 33.0554 21.4478 33.1835C21.2172 33.696 20.7559 34.0803 20.0897 34.0803C19.4235 34.0803 18.9879 33.696 18.7829 33.1835C18.7317 33.0554 18.6548 32.9529 18.501 32.9529C18.3473 32.9529 18.2448 33.081 18.2448 33.2604C18.2448 33.4397 18.3217 33.696 18.4242 33.8753C18.6804 34.3366 19.1673 34.849 20.1153 34.849C21.0634 34.849 21.5503 34.3366 21.8065 33.8753C21.909 33.7216 21.9859 33.4397 21.9859 33.2604C21.9859 33.081 21.909 32.9529 21.7296 32.9529Z" fill="black"/>
<path d="M27.6487 30.083C27.6487 30.6724 27.1619 31.1592 26.5469 31.1592C25.9576 31.1592 25.4707 30.6724 25.4707 30.083C25.4707 29.4681 25.9576 28.9812 26.5469 28.9812C27.1875 28.9812 27.6487 29.4424 27.6487 30.083Z" fill="black"/>
<path d="M13.2738 53.9899C13.53 53.9899 13.6581 53.8361 13.6581 53.6312C13.6581 53.5543 13.6325 53.4774 13.5813 53.4005L7.17534 42.6386C7.09847 42.5105 6.97035 42.408 6.81661 42.408C6.56037 42.408 6.43225 42.5617 6.43225 42.7667C6.43225 42.8436 6.45787 42.9204 6.50912 42.9973L12.9151 53.7593C12.9919 53.8874 13.12 53.9899 13.2738 53.9899Z" fill="black"/>
</svg>

<svg xmlns="http://www.w3.org/2000/svg" width="40" height="60" fill="none"><path fill="#2E9AFF" d="M30 1a9 9 0 0 1 9 9v20a9 9 0 0 1-9 9H19v11a9 9 0 1 1-18 0V30a9 9 0 0 1 9-9h11V10a9 9 0 0 1 9-9Z"/><path fill="#000" d="M32.39 7.995c.23 0 .383.154.383.36 0 .102-.025.178-.076.23L26.29 19.347c-.077.128-.205.23-.36.23-.23 0-.384-.154-.384-.358 0-.103.026-.18.077-.231L32.03 8.226c.077-.128.205-.23.36-.23ZM30.775 25.215c0 .153.077.281.23.358 1.333.743 2.69 2.23 2.69 5.074 0 2.895-1.331 4.381-2.69 5.124-.153.103-.23.205-.23.36 0 .204.128.332.333.332.077 0 .18 0 .359-.102 1.435-.718 3.075-2.511 3.075-5.689 0-3.177-1.64-4.97-3.075-5.688-.18-.077-.282-.103-.36-.103-.204 0-.332.128-.332.334ZM8.687 35.797c.154.077.23.205.23.359 0 .205-.127.333-.332.333-.077 0-.18-.026-.36-.103-1.434-.717-3.074-2.51-3.074-5.688 0-3.177 1.64-4.945 3.075-5.689.18-.102.282-.102.359-.102.205 0 .333.128.333.333 0 .154-.077.256-.23.359-1.359.743-2.691 2.203-2.691 5.099 0 2.895 1.358 4.382 2.69 5.1ZM14.734 30.083c0 .59-.486 1.076-1.101 1.076-.59 0-1.077-.487-1.077-1.076 0-.615.487-1.102 1.077-1.102.615 0 1.101.461 1.101 1.102ZM21.73 32.953c-.154 0-.231.102-.282.23-.23.513-.692.897-1.358.897-.666 0-1.102-.384-1.307-.896-.051-.129-.128-.231-.282-.231-.154 0-.256.128-.256.307 0 .18.077.436.18.615.255.462.742.974 1.69.974s1.435-.512 1.692-.974c.102-.153.179-.435.179-.615 0-.179-.077-.307-.256-.307ZM27.649 30.083c0 .59-.487 1.076-1.102 1.076-.59 0-1.076-.487-1.076-1.076 0-.615.487-1.102 1.076-1.102.64 0 1.102.461 1.102 1.102ZM13.274 53.99c.256 0 .384-.154.384-.359a.414.414 0 0 0-.077-.23L7.175 42.639c-.077-.129-.205-.231-.358-.231-.257 0-.385.154-.385.359 0 .077.026.153.077.23l6.406 10.762c.077.128.205.23.359.23Z"/></svg>
